G21         ; Set units to mm
G90         ; Absolute positioning
; Generated by LaserWeb (lw.raster-to-gcode.js)
; Size       : 60 x 41.4 mm
; PPI        : x: 554.5666666666665 - y: 554.5666666666665
; PPM        : x: 0.0458015267 - y: 0.0458015267
; Beam size  : 0.2 mm
; Beam range : 0 to 1
; Beam power : 0 to 100 %
; Feed rate  : 6000 mm/min
; Options    : trimLine, joinPixel, burnWhite
G0 F6000
G1 F6000
G1 X0.10 Y0.10 S0.0000
X0.20 S0.7281
X0.40 S0.7085
X0.60 S0.7072
X0.80 S0.7150
X1.20 S0.7072
X1.40 S0.6993
X1.60 S0.6980
X2.40 S0.6993
X2.60 S0.6954
X2.80 S0.6876
X3.00 S0.6824
X3.20 S0.6837
X3.40 S0.6850
X3.80 S0.6771
X4.00 S0.6693
X4.20 S0.6810
X4.40 S0.6667
X4.60 S0.6693
X4.80 S0.6667
X5.00 S0.6732
X5.20 S0.6575
X5.40 S0.6614
X5.60 S0.6680
X5.80 S0.6627
X6.00 S0.6654
X6.20 S0.6967
X6.40 S0.6706
X6.60 S0.6719
X6.80 S0.6471
X7.00 S0.6732
X7.20 S0.6562
X7.40 S0.7007
X7.60 S0.7621
X7.80 S0.6993
X8.00 S0.8026
X8.20 S0.8092
X8.40 S0.7556
X8.60 S0.8026
X8.80 S0.7935
X9.00 S0.8052
X9.20 S0.8941
X9.40 S0.8876
X9.60 S0.8810
X9.80 S0.5869
X10.00 S0.5987
X10.20 S0.9124
X10.40 S0.8588
X10.60 S0.7386
X10.80 S0.6706
X11.00 S0.8418
X11.20 S0.8902
X11.40 S0.8575
X11.60 S0.9098
X11.80 S0.8928
X12.00 S0.9281
X12.20 S0.9268
X12.40 S0.9111
X12.60 S0.8235
X12.80 S0.8170
X13.00 S0.6327
X13.20 S0.6810
X13.40 S0.4797
X13.60 S0.3634
X13.80 S0.3320
X14.00 S0.3935
X14.20 S0.6288
X14.40 S0.6954
X14.60 S0.6039
X14.80 S0.6418
X15.00 S0.5882
X15.20 S0.5686
X15.40 S0.4706
X15.60 S0.3399
X15.80 S0.2954
X16.00 S0.2745
X16.20 S0.3242
X16.40 S0.3033
X16.60 S0.3111
X16.80 S0.3320
X17.00 S0.3556
X17.20 S0.2484
X17.40 S0.1569
X17.60 S0.0810
X17.80 S0.1686
X18.00 S0.2118
X18.20 S0.1712
X18.40 S0.1333
X18.60 S0.1190
X18.80 S0.1242
X19.00 S0.1307
X19.20 S0.1163
X19.40 S0.1320
X19.60 S0.1098
X19.80 S0.1307
X20.00 S0.1007
X20.20 S0.0889
X20.40 S0.1020
X20.60 S0.0876
X20.80 S0.0915
X21.00 S0.0928
X21.20 S0.1203
X21.40 S0.0993
X21.60 S0.1046
X21.80 S0.0850
X22.00 S0.0784
X22.20 S0.0863
X22.40 S0.0758
X22.60 S0.0824
X22.80 S0.0863
X23.20 S0.0771
X23.40 S0.0784
X23.60 S0.0719
X23.80 S0.0614
X24.00 S0.0680
X24.20 S0.0641
X24.40 S0.0654
X24.60 S0.0902
X24.80 S0.0824
X25.00 S0.0928
X25.20 S0.0680
X25.40 S0.0510
X25.60 S0.0732
X25.80 S0.0667
X26.00 S0.0732
X26.20 S0.0458
X26.40 S0.0732
X26.60 S0.0641
X26.80 S0.0418
X27.00 S0.0654
X27.20 S0.0614
X27.40 S0.0458
X27.60 S0.0601
X27.80 S0.0536
X28.00 S0.0458
X28.20 S0.0575
X28.40 S0.0458
X28.60 S0.0693
X28.80 S0.0379
X29.00 S0.0497
X29.40 S0.0458
X29.60 S0.0588
X29.80 S0.0614
X30.20 S0.0536
X30.40 S0.0654
X30.60 S0.0627
X30.80 S0.0340
X31.00 S0.0614
X31.20 S0.0627
X31.40 S0.0693
X31.60 S0.0837
X31.80 S0.0771
X32.00 S0.0928
X32.20 S0.0850
X32.40 S0.0784
X32.60 S0.0771
X32.80 S0.0497
X33.00 S0.0418
X33.20 S0.0431
X33.40 S0.0497
X33.60 S0.0641
X33.80 S0.0837
X34.00 S0.0810
X34.20 S0.1072
X34.40 S0.1359
X34.60 S0.1294
X34.80 S0.3333
X35.00 S0.2039
X35.20 S0.1882
X35.40 S0.2118
X35.60 S0.1255
X35.80 S0.0863
X36.00 S0.0850
X36.20 S0.1059
X36.40 S0.0902
X36.60 S0.0784
X36.80 S0.0588
X37.00 S0.0497
X37.20 S0.0680
X37.40 S0.0549
X37.60 S0.0758
X37.80 S0.7203
X38.00 S0.8758
X38.20 S0.9085
X38.40 S0.9059
X38.60 S0.9320
X38.80 S0.7778
X39.00 S0.7987
X39.20 S0.8824
X39.40 S0.5830
X39.60 S0.3216
X39.80 S0.2680
X40.00 S0.3216
X40.20 S0.3660
X40.40 S0.3556
X40.60 S0.3098
X40.80 S0.3059
X41.00 S0.3922
X41.20 S0.4484
X41.40 S0.5948
X41.60 S0.5281
X41.80 S0.5124
X42.00 S0.6092
X42.20 S0.7425
X42.40 S0.7176
X42.60 S0.7765
X42.80 S0.8039
X43.00 S0.8641
X43.20 S0.8170
X43.40 S0.8863
X43.60 S0.9007
X43.80 S0.8928
X44.00 S0.6523
X44.20 S0.4771
X44.40 S0.4000
X44.60 S0.3752
X44.80 S0.3386
X45.00 S0.3412
X45.20 S0.3059
X45.40 S0.3020
X45.60 S0.2889
X45.80 S0.3007
X46.00 S0.2810
X46.20 S0.2824
X46.40 S0.2732
X46.60 S0.2876
X46.80 S0.2915
X47.00 S0.2941
X47.40 S0.2810
X47.60 S0.2928
X48.00 S0.2993
X48.20 S0.2915
X48.40 S0.2810
X48.60 S0.2980
X48.80 S0.3072
X49.00 S0.3163
X49.20 S0.3608
X49.40 S0.4105
X49.60 S0.4706
X49.80 S0.5242
X50.00 S0.6235
X50.20 S0.8863
X50.40 S0.8261
X50.60 S0.8967
X50.80 S0.9033
X51.00 S0.8392
X51.20 S0.8353
X51.40 S0.8863
X51.60 S0.8301
X51.80 S0.7948
X52.00 S0.7765
X52.20 S0.7673
X52.40 S0.8118
X52.60 S0.8013
X52.80 S0.8157
X53.00 S0.7346
X53.20 S0.7359
X53.40 S0.7176
X53.60 S0.7059
X54.00 S0.7124
X54.20 S0.7137
X54.40 S0.6980
X54.60 S0.7046
X54.80 S0.6941
X55.00 S0.7059
X55.20 S0.6980
X55.40 S0.7059
X55.60 S0.7007
X55.80 S0.7033
X56.00 S0.6954
X56.20 S0.7007
X56.40 S0.6980
X56.60 S0.7059
X56.80 S0.7072
X57.20 S0.7098
X57.40 S0.7007
X57.60 S0.6993
X57.80 S0.7163
X58.00 S0.7072
X58.20 S0.7085
X58.40 S0.7033
X58.60 S0.7111
X58.80 S0.7124
X59.00 S0.7085
X59.20 S0.7124
X59.40 S0.7098
X59.60 S0.7020
X59.80 S0.7007
X59.90 S0.7072
Y0.30 S0.0000
X59.80 S0.7020
X59.60 S0.7033
X59.40 S0.6954
X59.20 S0.7111
X59.00 S0.7046
X58.80 S0.7111
X58.60 S0.6993
X58.40 S0.7111
X58.20 S0.7059
X58.00 S0.6902
X57.80 S0.7007
X57.60 S0.7085
X57.40 S0.7046
X57.20 S0.7072
X57.00 S0.7059
X56.80 S0.7020
X56.60 S0.6993
X56.40 S0.7020
X56.20 S0.7059
X56.00 S0.7007
X55.80 S0.7020
X55.60 S0.6967
X55.40 S0.6954
X55.00 S0.7020
X54.80 S0.6980
X54.60 S0.6941
X54.40 S0.7046
X54.20 S0.6980
X54.00 S0.7007
X53.80 S0.7059
X53.60 S0.7007
X53.40 S0.7033
X53.20 S0.7124
X53.00 S0.6366
X52.80 S0.7412
X52.60 S0.7556
X52.40 S0.7255
X52.20 S0.7542
X52.00 S0.7634
X51.80 S0.7529
X51.60 S0.7399
X51.40 S0.7712
X51.20 S0.8876
X51.00 S0.8209
X50.80 S0.8824
X50.60 S0.8549
X50.40 S0.9150
X50.20 S0.8693
X50.00 S0.8667
X49.80 S0.8144
X49.60 S0.5346
X49.40 S0.4771
X49.20 S0.4209
X49.00 S0.3608
X48.80 S0.3307
X48.60 S0.3046
X48.40 S0.2902
X48.20 S0.2719
X48.00 S0.2915
X47.80 S0.2967
X47.60 S0.2954
X47.40 S0.2967
X47.20 S0.2824
X47.00 S0.2810
X46.80 S0.2654
X46.60 S0.2745
X46.40 S0.2810
X46.20 S0.2915
X46.00 S0.2719
X45.80 S0.2601
X45.60 S0.2562
X45.40 S0.2850
X45.20 S0.2641
X45.00 S0.2758
X44.80 S0.3020
X44.60 S0.3451
X44.40 S0.3399
X44.20 S0.3765
X44.00 S0.4065
X43.80 S0.4902
X43.60 S0.6431
X43.40 S0.8837
X43.20 S0.9059
X43.00 S0.8732
X42.80 S0.8366
X42.60 S0.8235
X42.40 S0.7765
X42.20 S0.6523
X42.00 S0.6484
X41.80 S0.6667
X41.60 S0.5569
X41.40 S0.4719
X41.20 S0.6092
X41.00 S0.5124
X40.80 S0.5163
X40.60 S0.4497
X40.40 S0.2235
X40.20 S0.3686
X40.00 S0.2078
X39.80 S0.2810
X39.60 S0.4196
X39.40 S0.3098
X39.20 S0.4039
X39.00 S0.2732
X38.80 S0.7817
X38.60 S0.9059
X38.40 S0.8850
X38.20 S0.7882
X38.00 S0.8784
X37.80 S0.8797
X37.60 S0.9307
X37.40 S0.7778
X37.20 S0.0627
X37.00 S0.0549
X36.80 S0.0392
X36.60 S0.0601
X36.40 S0.0654
X36.20 S0.0810
X36.00 S0.1020
X35.80 S0.0980
X35.60 S0.0732
X35.40 S0.0941
X35.20 S0.1529
X35.00 S0.1386
X34.80 S0.2327
X34.60 S0.2458
X34.40 S0.1621
X34.20 S0.1438
X34.00 S0.1059
X33.80 S0.0928
X33.60 S0.0797
X33.40 S0.0889
X33.20 S0.0771
X33.00 S0.0575
X32.80 S0.0471
X32.60 S0.0418
X32.40 S0.0458
X32.20 S0.0444
X32.00 S0.0614
X31.80 S0.0693
X31.60 S0.0627
X31.40 S0.0654
X31.20 S0.0693
X31.00 S0.0562
X30.80 S0.0693
X30.60 S0.0536
X30.40 S0.0484
X30.20 S0.0497
X29.80 S0.0536
X29.60 S0.0340
X29.40 S0.0484
X29.20 S0.0418
X29.00 S0.0549
X28.80 S0.0431
X28.60 S0.0614
X28.40 S0.0340
X28.20 S0.0536
X28.00 S0.0471
X27.80 S0.0379
X27.60 S0.0693
X27.40 S0.0353
X27.20 S0.0614
X27.00 S0.0549
X26.80 S0.0418
X26.60 S0.0536
X26.40 S0.0654
X26.20 S0.0536
X26.00 S0.0614
X25.80 S0.0654
X25.60 S0.0810
X25.40 S0.0601
X25.20 S0.0810
X25.00 S0.0784
X24.80 S0.0771
X24.60 S0.0680
X24.40 S0.0614
X24.20 S0.0745
X24.00 S0.0654
X23.80 S0.0706
X23.60 S0.0889
X23.40 S0.0810
X23.20 S0.0902
X23.00 S0.0928
X22.80 S0.0902
X22.60 S0.0771
X22.40 S0.1033
X22.20 S0.0837
X22.00 S0.0928
X21.60 S0.0810
X21.40 S0.0758
X21.20 S0.0863
X21.00 S0.1033
X20.80 S0.0889
X20.60 S0.0915
X20.40 S0.0771
X20.20 S0.0967
X20.00 S0.0902
X19.80 S0.0980
X19.60 S0.1176
X19.40 S0.1111
X19.20 S0.1163
X19.00 S0.1242
X18.80 S0.1281
X18.60 S0.1242
X18.40 S0.1346
X18.20 S0.1111
X18.00 S0.1569
X17.80 S0.1804
X17.60 S0.1621
X17.40 S0.0732
X17.20 S0.1582
X17.00 S0.2614
X16.80 S0.3098
X16.60 S0.3216
X16.40 S0.2758
X16.20 S0.2980
X16.00 S0.3007
X15.80 S0.2954
X15.60 S0.3072
X15.40 S0.3660
X15.20 S0.5007
X15.00 S0.5634
X14.80 S0.5765
X14.60 S0.5843
X14.40 S0.7739
X14.20 S0.3935
X14.00 S0.4980
X13.80 S0.3595
X13.60 S0.2732
X13.40 S0.3451
X13.20 S0.6863
X13.00 S0.6732
X12.80 S0.7137
X12.60 S0.8680
X12.40 S0.7843
X12.20 S0.9307
X12.00 S0.8418
X11.80 S0.9255
X11.60 S0.9059
X11.40 S0.8941
X11.20 S0.8418
X11.00 S0.9059
X10.80 S0.8314
X10.60 S0.7059
X10.40 S0.7621
X10.20 S0.8327
X10.00 S0.7935
X9.80 S0.7477
X9.60 S0.7176
X9.40 S0.7556
X9.20 S0.8601
X9.00 S0.8954
X8.80 S0.7987
X8.60 S0.7216
X8.40 S0.8327
X8.20 S0.7307
X8.00 S0.8301
X7.80 S0.7922
X7.60 S0.7477
X7.20 S0.6902
X7.00 S0.7085
X6.80 S0.7294
X6.60 S0.6784
X6.40 S0.6706
X6.20 S0.6680
X6.00 S0.6980
X5.80 S0.6732
X5.60 S0.6693
X5.40 S0.6614
X5.20 S0.6654
X5.00 S0.6732
X4.80 S0.6693
X4.60 S0.6706
X4.40 S0.6732
X4.20 S0.6771
X4.00 S0.6732
X3.80 S0.6771
X3.60 S0.6863
X3.40 S0.6719
X3.20 S0.6732
X3.00 S0.6810
X2.80 S0.6771
X2.60 S0.6928
X2.40 S0.7046
X2.20 S0.6915
X2.00 S0.7007
X1.80 S0.6876
X1.60 S0.6993
X1.40 S0.7046
X1.20 S0.7033
X1.00 S0.6993
X0.80 S0.6954
X0.60 S0.7072
X0.40 S0.7190
X0.20 S0.7150
X0.10 S0.7229
Y0.50 S0.0000
X0.20 S0.7150
X0.40 S0.7046
X0.60 S0.7150
X0.80 S0.7111
X1.20 S0.7072
X1.40 S0.6993
X1.60 S0.7085
X1.80 S0.6915
X2.00 S0.6993
X2.20 S0.6915
X2.40 S0.6889
X2.60 S0.6876
X2.80 S0.6915
X3.00 S0.6850
X3.20 S0.6876
X3.40 S0.6824
X3.60 S0.6797
X3.80 S0.6771
X4.00 S0.6732
X4.20 S0.6771
X4.60 S0.6627
X4.80 S0.6588
X5.00 S0.6719
X5.20 S0.6784
X5.40 S0.6706
X5.60 S0.6601
X5.80 S0.6680
X6.00 S0.6667
X6.20 S0.6732
X6.40 S0.6654
X6.60 S0.6824
X6.80 S0.6980
X7.00 S0.7020
X7.20 S0.6536
X7.40 S0.6458
X7.60 S0.6732
X7.80 S0.7085
X8.00 S0.7072
X8.20 S0.8144
X8.40 S0.8680
X8.60 S0.7974
X8.80 S0.7987
X9.00 S0.7974
X9.20 S0.9281
X9.40 S0.8667
X9.60 S0.4693
X9.80 S0.6941
X10.00 S0.8928
X10.20 S0.7778
X10.40 S0.7739
X10.60 S0.7660
X10.80 S0.7830
X11.00 S0.8026
X11.20 S0.8105
X11.40 S0.8614
X11.60 S0.9059
X11.80 S0.8928
X12.00 S0.9111
X12.20 S0.9386
X12.40 S0.9255
X12.60 S0.8745
X12.80 S0.8680
X13.00 S0.8078
X13.20 S0.6863
X13.40 S0.5529
X13.60 S0.4667
X13.80 S0.3451
X14.00 S0.3660
X14.20 S0.4850
X14.40 S0.5712
X14.60 S0.6039
X14.80 S0.5399
X15.00 S0.5647
X15.20 S0.5595
X15.40 S0.4693
X15.60 S0.3817
X15.80 S0.2902
X16.00 S0.2850
X16.20 S0.2889
X16.40 S0.3203
X16.80 S0.2967
X17.00 S0.3190
X17.20 S0.2301
X17.40 S0.1294
X17.60 S0.0654
X17.80 S0.1582
X18.00 S0.1739
X18.20 S0.1451
X18.40 S0.1268
X18.60 S0.1346
X18.80 S0.1216
X19.00 S0.1176
X19.20 S0.1307
X19.40 S0.1281
X19.60 S0.1163
X19.80 S0.1150
X20.00 S0.1098
X20.20 S0.1111
X20.40 S0.0967
X20.60 S0.0889
X20.80 S0.0928
X21.00 S0.0993
X21.20 S0.0967
X21.60 S0.0850
X21.80 S0.0784
X22.00 S0.0850
X22.20 S0.0889
X22.60 S0.0850
X22.80 S0.0980
X23.00 S0.0784
X23.20 S0.0915
X23.40 S0.0745
X23.60 S0.0758
X23.80 S0.0967
X24.00 S0.0810
X24.20 S0.0745
X24.40 S0.0654
X24.60 S0.0680
X24.80 S0.0732
X25.00 S0.0641
X25.20 S0.0784
X25.40 S0.0706
X25.60 S0.0627
X25.80 S0.0614
X26.00 S0.0654
X26.20 S0.0732
X26.40 S0.0497
X26.60 S0.0458
X26.80 S0.0641
X27.00 S0.0444
X27.20 S0.0667
X27.40 S0.0458
X27.60 S0.0536
X27.80 S0.0549
X28.00 S0.0536
X28.20 S0.0575
X28.40 S0.0484
X28.60 S0.0418
X28.80 S0.0458
X29.00 S0.0418
X29.20 S0.0562
X29.40 S0.0431
X29.60 S0.0497
X29.80 S0.0340
X30.00 S0.0458
X30.20 S0.0484
X30.40 S0.0458
X30.60 S0.0549
X30.80 S0.0575
X31.00 S0.0641
X31.40 S0.0601
X31.80 S0.0575
X32.00 S0.0562
X32.20 S0.0588
X32.40 S0.0575
X32.60 S0.0536
X32.80 S0.0575
X33.00 S0.0810
X33.20 S0.0771
X33.40 S0.0967
X33.60 S0.1085
X33.80 S0.0954
X34.00 S0.1124
X34.20 S0.1190
X34.40 S0.1216
X34.60 S0.5359
X34.80 S0.2680
X35.00 S0.1673
X35.20 S0.1399
X35.40 S0.1765
X35.60 S0.0863
X35.80 S0.0654
X36.00 S0.1216
X36.20 S0.0863
X36.40 S0.0667
X36.60 S0.0575
X36.80 S0.0562
X37.00 S0.0667
X37.20 S0.0575
X37.40 S0.6092
X37.60 S0.7935
X37.80 S0.8562
X38.00 S0.8052
X38.20 S0.7490
X38.40 S0.9203
X38.60 S0.7869
X38.80 S0.5007
X39.00 S0.4196
X39.20 S0.2078
X39.40 S0.3477
X39.60 S0.3516
X39.80 S0.2915
X40.00 S0.2039
X40.20 S0.3137
X40.40 S0.2327
X40.60 S0.4118
X40.80 S0.4222
X41.00 S0.4784
X41.20 S0.5399
X41.40 S0.5346
X41.60 S0.6183
X41.80 S0.6261
X42.00 S0.6458
X42.20 S0.6680
X42.40 S0.7778
X42.60 S0.8340
X42.80 S0.8327
X43.00 S0.8719
X43.20 S0.9438
X43.40 S0.7386
X43.60 S0.5673
X43.80 S0.4471
X44.00 S0.3948
X44.20 S0.3516
X44.40 S0.3255
X44.60 S0.3163
X44.80 S0.3203
X45.00 S0.2928
X45.20 S0.2588
X45.40 S0.2562
X45.60 S0.2654
X45.80 S0.2627
X46.00 S0.2523
X46.40 S0.2654
X46.60 S0.2719
X46.80 S0.2732
X47.00 S0.2876
X47.20 S0.2810
X47.40 S0.2863
X47.60 S0.2902
X47.80 S0.2954
X48.00 S0.2889
X48.20 S0.2837
X48.40 S0.2824
X48.60 S0.2863
X48.80 S0.3085
X49.00 S0.3320
X49.20 S0.3843
X49.40 S0.4458
X49.60 S0.4863
X49.80 S0.5542
X50.00 S0.9268
X50.20 S0.8353
X50.40 S0.8745
X50.60 S0.9033
X50.80 S0.8484
X51.00 S0.8863
X51.20 S0.7569
X51.40 S0.8405
X51.60 S0.6706
X51.80 S0.7673
X52.00 S0.8484
X52.20 S0.7974
X52.40 S0.7595
X52.60 S0.6784
X52.80 S0.7712
X53.20 S0.7242
X53.40 S0.7085
X53.60 S0.7072
X53.80 S0.7046
X54.00 S0.7085
X54.20 S0.7020
X55.00 S0.6980
X55.20 S0.7046
X55.60 S0.7059
X55.80 S0.6993
X56.00 S0.6980
X56.20 S0.7046
X56.40 S0.6941
X56.60 S0.7033
X56.80 S0.6954
X57.00 S0.6980
X57.20 S0.7137
X57.40 S0.7020
X57.60 S0.7137
X57.80 S0.7085
X58.00 S0.7007
X58.20 S0.6954
X58.40 S0.7098
X58.60 S0.7111
X58.80 S0.7124
X59.00 S0.7111
X59.20 S0.7046
X59.40 S0.7111
X59.60 S0.7072
X59.80 S0.6980
X59.90 S0.7007
Y0.70 S0.0000
X59.80 S0.7203
X59.60 S0.6980
X59.40 S0.7085
X59.20 S0.7098
X59.00 S0.7111
X58.80 S0.7085
X58.60 S0.7111
X58.40 S0.7150
X58.00 S0.7098
X57.60 S0.7046
X57.40 S0.6980
X57.20 S0.7085
X56.80 S0.7046
X56.60 S0.7072
X56.40 S0.7059
X56.20 S0.6941
X56.00 S0.6980
X55.80 S0.7085
X55.60 S0.7072
X55.40 S0.7085
X55.20 S0.6941
X55.00 S0.6967
X54.80 S0.6941
X54.60 S0.7137
X54.20 S0.7059
X54.00 S0.7085
X53.80 S0.7007
X53.60 S0.7085
X53.40 S0.7190
X53.20 S0.7163
X53.00 S0.7072
X52.80 S0.6837
X52.60 S0.7725
X52.40 S0.7791
X52.20 S0.7098
X52.00 S0.7948
X51.80 S0.8562
X51.60 S0.7268
X51.40 S0.7686
X51.20 S0.7346
X51.00 S0.7935
X50.80 S0.7908
X50.60 S0.8301
X50.40 S0.8876
X50.20 S0.8065
X50.00 S0.7895
X49.80 S0.9150
X49.60 S0.5987
X49.40 S0.4993
X49.20 S0.4444
X49.00 S0.3778
X48.80 S0.3333
X48.60 S0.3190
X48.40 S0.2745
X48.20 S0.2667
X48.00 S0.2719
X47.80 S0.2745
X47.60 S0.2863
X47.40 S0.2928
X47.20 S0.2993
X47.00 S0.2810
X46.80 S0.2876
X46.60 S0.2837
X46.20 S0.2680
X46.00 S0.2523
X45.80 S0.2510
X45.60 S0.2562
X45.40 S0.2458
X45.20 S0.2680
X45.00 S0.2732
X44.80 S0.2771
X44.60 S0.2915
X44.40 S0.2850
X44.20 S0.3033
X44.00 S0.3333
X43.80 S0.3556
X43.60 S0.3791
X43.40 S0.4222
X43.20 S0.4863
X43.00 S0.6170
X42.80 S0.8261
X42.60 S0.9346
X42.40 S0.8693
X42.20 S0.8706
X42.00 S0.8000
X41.80 S0.7294
X41.60 S0.6065
X41.40 S0.5935
X41.20 S0.6784
X41.00 S0.5961
X40.80 S0.5765
X40.60 S0.5595
X40.20 S0.4484
X40.00 S0.5673
X39.80 S0.2235
X39.60 S0.3307
X39.40 S0.2183
X39.20 S0.3791
X39.00 S0.3804
X38.80 S0.1804
X38.60 S0.2928
X38.40 S0.4784
X38.20 S0.6863
X38.00 S0.9137
X37.80 S0.7020
X37.60 S0.9137
X37.40 S0.8183
X37.20 S0.7373
X37.00 S0.1399
X36.80 S0.0863
X36.40 S0.0497
X36.20 S0.0693
X36.00 S0.0941
X35.80 S0.1020
X35.60 S0.0732
X35.40 S0.0771
X35.20 S0.1529
X35.00 S0.1699
X34.80 S0.1281
X34.60 S0.2797
X34.40 S0.4601
X34.20 S0.1333
X34.00 S0.1477
X33.80 S0.0824
X33.60 S0.0863
X33.40 S0.0797
X33.20 S0.1033
X33.00 S0.0889
X32.80 S0.0784
X32.60 S0.0627
X32.40 S0.0549
X32.20 S0.0536
X32.00 S0.0601
X31.80 S0.0732
X31.60 S0.0536
X31.40 S0.0601
X31.20 S0.0771
X31.00 S0.0444
X30.80 S0.0536
X30.60 S0.0654
X30.40 S0.0340
X30.20 S0.0575
X30.00 S0.0458
X29.80 S0.0536
X29.60 S0.0418
X29.40 S0.0458
X29.20 S0.0327
X28.80 S0.0458
X28.60 S0.0536
X28.40 S0.0497
X28.20 S0.0654
X28.00 S0.0458
X27.80 S0.0654
X27.60 S0.0379
X27.40 S0.0497
X27.20 S0.0510
X27.00 S0.0418
X26.80 S0.0732
X26.60 S0.0340
X26.40 S0.0654
X26.20 S0.0536
X26.00 S0.0654
X25.80 S0.0458
X25.60 S0.0588
X25.40 S0.0902
X25.20 S0.0784
X25.00 S0.0575
X24.80 S0.0614
X24.60 S0.0693
X24.40 S0.0980
X24.20 S0.0889
X24.00 S0.0810
X23.80 S0.0745
